common/svg/trash-icon.svg

<svg fill="none" height="20" viewBox="0 0 20 20" width="20" xmlns="http://www.w3.org/2000/svg"><path d="m18.9266 2.34463h-4.8023v-1.04519c0-.734468-.678-1.29944-1.5254-1.29944h-5.42376c-.84746 0-1.52542.564972-1.52542 1.29944v1.04519h-4.802262c-.480226 0-.847458.36723-.847458.84746s.367232.84746.847458.84746h1.045202l1.04519 13.16385c.02825 1.5537 1.27119 2.7966 2.82486 2.7966h8.22039c1.5536 0 2.7966-1.2429 2.8248-2.7966l1.0735-13.1356h1.0452c.4802 0 .8474-.36724.8474-.84746 0-.48023-.3672-.87571-.8474-.87571zm-11.58197-.64971h5.08477v.64971h-5.08477zm.33899 13.75708h-.02825c-.45198 0-.81921-.3673-.84746-.8192l-.31073-6.89269c-.02825-.48022.33898-.8757.8192-.8757h.02825c.45198 0 .81921.36723.84746.81921l.31073 6.89268c0 .4519-.33898.8474-.8192.8757zm5.28248-.8192c-.0282.4519-.3955.8192-.8475.8192h-.0282c-.4802-.0283-.8192-.4238-.8192-.8757l.3107-6.89268c.0283-.45198.3955-.81921.8475-.81921h.0282c.4803.02825.8192.42373.8192.8757z" fill="#000"/></svg>

<svg width="20" height="20" viewBox="0 0 20 20" fill="none" xmlns="http://www.w3.org/2000/svg">
<path d="M18.9266 2.34463H14.1243V1.29944C14.1243 0.564972 13.4463 0 12.5989 0H7.17514C6.32768 0 5.64972 0.564972 5.64972 1.29944V2.34463H0.847458C0.367232 2.34463 0 2.71186 0 3.19209C0 3.67232 0.367232 4.03955 0.847458 4.03955H1.89266L2.93785 17.2034C2.9661 18.7571 4.20904 20 5.76271 20H13.9831C15.5367 20 16.7797 18.7571 16.8079 17.2034L17.8814 4.0678H18.9266C19.4068 4.0678 19.774 3.70056 19.774 3.22034C19.774 2.74011 19.4068 2.34463 18.9266 2.34463ZM7.34463 1.69492H12.4294V2.34463H7.34463V1.69492ZM7.68362 15.452H7.65537C7.20339 15.452 6.83616 15.0847 6.80791 14.6328L6.49718 7.74011C6.46893 7.25989 6.83616 6.86441 7.31638 6.86441H7.34463C7.79661 6.86441 8.16384 7.23164 8.19209 7.68362L8.50282 14.5763C8.50282 15.0282 8.16384 15.4237 7.68362 15.452ZM12.9661 14.6328C12.9379 15.0847 12.5706 15.452 12.1186 15.452H12.0904C11.6102 15.4237 11.2712 15.0282 11.2712 14.5763L11.5819 7.68362C11.6102 7.23164 11.9774 6.86441 12.4294 6.86441H12.4576C12.9379 6.89266 13.2768 7.28814 13.2768 7.74011L12.9661 14.6328Z" fill="black"/>
</svg>
